src/img/glass.svg

<svg width="96" height="96" viewBox="0 0 96 96" fill="none" xmlns="http://www.w3.org/2000/svg">
<path d="M18.3856 63.711C24.0179 67.9446 30.7841 70.2274 37.9689 70.3125C55.8033 70.3125 70.3126 55.8032 70.3126 37.9688C70.3126 20.1343 55.8033 5.625 37.9689 5.625C29.3621 5.625 21.2668 8.99381 15.1747 15.1108C9.10832 21.2018 5.71701 29.3143 5.62513 37.9538C5.54076 45.9073 8.4307 53.5521 13.7624 59.4797C14.2818 60.057 15.1709 60.1043 15.7484 59.5849C16.3259 59.0655 16.373 58.1762 15.8536 57.5989C10.9944 52.1966 8.36057 45.2304 8.43763 37.9837C8.52145 30.0819 11.6218 22.6637 17.1674 17.0957C22.7279 11.5123 30.1153 8.4375 37.9689 8.4375C54.2525 8.4375 67.5001 21.6851 67.5001 37.9688C67.5001 54.2524 54.2525 67.5 37.9856 67.5002C31.4195 67.4222 25.2264 65.3344 20.0754 61.4629C19.4549 60.9958 18.5729 61.1212 18.1064 61.7421C17.6396 62.3629 17.7646 63.2445 18.3856 63.711Z" fill="#616F8A"/>
<path d="M43.3126 12.8438H33.5626C32.3736 12.8438 31.4063 13.8111 31.4063 15V19.9688H22.3126C21.1236 19.9688 20.1563 20.9361 20.1563 22.125V37.2188H18.2742C17.4974 37.2188 16.8679 37.8482 16.8679 38.625C16.8679 39.4018 17.4974 40.0312 18.2742 40.0312H58.6009C59.3777 40.0312 60.0072 39.4018 60.0072 38.625C60.0072 37.8482 59.3777 37.2188 58.6009 37.2188H56.7188V29.25C56.7188 28.0611 55.7515 27.0938 54.5626 27.0938H45.4688V15C45.4688 13.8111 44.5015 12.8438 43.3126 12.8438ZM22.9688 22.7812H31.4063V37.2188H22.9688V22.7812ZM34.2188 15.6562H42.6563V37.2188H34.2188V15.6562ZM53.9063 29.9062V37.2188H45.4688V29.9062H53.9063Z" fill="#616F8A"/>
<path d="M54.1877 51.9473H47.5673L44.5598 44.2592C44.3472 43.716 43.8263 43.3645 43.2377 43.3652C42.6542 43.3705 42.1345 43.7355 41.9316 44.2826L37.8216 55.3656L34.9491 47.2238C34.7653 46.7025 34.2932 46.3373 33.7423 46.2904C33.1922 46.2428 32.6646 46.5236 32.395 47.0059L29.6365 51.9471H23.0335C22.2566 51.9471 21.6272 52.5765 21.6272 53.3533C21.6272 54.1301 22.2566 54.7596 23.0335 54.7596H30.4618C30.9715 54.7596 31.4413 54.4838 31.6898 54.0388L33.3328 51.096L36.4624 59.9666C36.6595 60.5252 37.185 60.9002 37.7773 60.9051H37.7888C38.3762 60.9051 38.9025 60.5394 39.1071 59.9876L43.2851 48.7211L45.2976 53.8658C45.5085 54.4048 46.0281 54.7598 46.6071 54.7598H54.1877C54.9645 54.7598 55.594 54.1303 55.594 53.3535C55.594 52.5767 54.9645 51.9473 54.1877 51.9473Z" fill="#616F8A"/>
<path fill-rule="evenodd" clip-rule="evenodd" d="M95.2586 85.3151L93.8891 83.9454C93.3399 83.3961 92.4495 83.3962 91.9005 83.9453C91.3511 84.4944 91.3511 85.3849 91.9003 85.9339L93.0709 87.1046L87.105 93.0707L76.9624 82.9283L82.9284 76.9622L87.6602 81.6939C88.2096 82.2429 89.0998 82.2429 89.649 81.6939C90.1982 81.1446 90.1982 80.2543 89.649 79.7051L83.9254 73.9817L83.9229 73.9789L79.9455 70.0014L79.9421 69.9984L76.4319 66.4883C75.9538 66.0099 75.3182 65.7465 74.6419 65.7465C73.9656 65.7465 73.3299 66.0099 72.852 66.4879L72.6531 66.687L67.6211 61.6538C71.2178 57.1601 73.8154 51.8349 75.0761 46.0166L75.5747 43.2041C75.6986 42.3097 75.7912 41.4056 75.8514 40.4927L75.9345 37.6802C75.9277 36.7702 75.8901 35.8661 75.8211 34.9686L75.4999 32.1561C74.5174 25.6912 71.8899 19.644 67.7554 14.4206C67.2733 13.8118 66.3891 13.7091 65.7799 14.1908C65.1711 14.6728 65.0681 15.5573 65.55 16.1663C70.5056 22.4267 73.125 29.9659 73.125 37.9688C73.125 57.354 57.354 73.125 37.9688 73.125C18.5835 73.125 2.8125 57.354 2.8125 37.9688C2.8125 18.5835 18.5835 2.8125 37.9688 2.8125C46.7321 2.8125 55.1271 6.05587 61.6067 11.9451C62.1812 12.4678 63.0711 12.4251 63.5931 11.8504C64.1154 11.2757 64.0731 10.3862 63.4982 9.86381C56.4999 3.50306 47.4334 0 37.9688 0C17.0327 0 0 17.0327 0 37.9688C0 56.4529 13.2776 71.8914 30.7956 75.2548L33.6081 75.6857C34.503 75.7884 35.4071 75.8604 36.3197 75.8996L39.1322 75.918C40.0442 75.8904 40.9487 75.8323 41.8438 75.7412L44.6563 75.3476C51.0056 74.2148 56.8119 71.4967 61.6539 67.6211L66.6872 72.6533L66.4884 72.852C66.0101 73.3301 65.7467 73.9657 65.7467 74.6421C65.7467 75.3184 66.0101 75.954 66.4881 76.4319L69.9996 79.9433L70.0016 79.9455L73.9791 83.9229L73.9817 83.9254L85.3148 95.2583C85.7929 95.7368 86.4285 96 87.1048 96C87.7811 96 88.4166 95.7367 88.8949 95.2586L95.2586 88.8949C95.7367 88.4166 96 87.7811 96 87.1048C96 86.4285 95.7367 85.7929 95.2586 85.3151ZM70.6641 68.6752L65.7789 63.789C65.1403 64.4766 64.4766 65.1403 63.7892 65.7787L68.6754 70.6639L70.6641 68.6752ZM72.9848 78.951L74.9736 80.9396L80.9394 74.9737L78.9508 72.9849L72.9848 78.951ZM76.9622 70.9959L74.6421 68.6758L68.676 74.6419L70.9961 76.962L76.9622 70.9959Z" fill="#616F8A"/>
</svg>

<svg width="96" height="96" fill="none" xmlns="http://www.w3.org/2000/svg"><path d="M18.386 63.711c5.632 4.234 12.398 6.516 19.583 6.602 17.834 0 32.344-14.51 32.344-32.344 0-17.835-14.51-32.344-32.344-32.344-8.607 0-16.702 3.369-22.794 9.486-6.067 6.09-9.458 14.203-9.55 22.843a31.612 31.612 0 0 0 8.137 21.526 1.406 1.406 0 0 0 2.092-1.881 28.805 28.805 0 0 1-7.416-19.615c.083-7.902 3.184-15.32 8.73-20.888 5.56-5.584 12.947-8.659 20.8-8.659C54.253 8.438 67.5 21.685 67.5 37.97 67.5 54.252 54.252 67.5 37.986 67.5c-6.566-.078-12.76-2.166-17.91-6.037a1.406 1.406 0 1 0-1.69 2.248z" fill="#616F8A"/><path d="M43.313 12.844h-9.75A2.159 2.159 0 0 0 31.406 15v4.969h-9.093a2.159 2.159 0 0 0-2.157 2.156v15.094h-1.882a1.406 1.406 0 1 0 0 2.812h40.327a1.406 1.406 0 1 0 0-2.812h-1.882V29.25a2.159 2.159 0 0 0-2.156-2.156h-9.094V15a2.159 2.159 0 0 0-2.156-2.156zM22.969 22.78h8.437V37.22H22.97V22.78zm11.25-7.125h8.437V37.22H34.22V15.656zm19.687 14.25v7.313H45.47v-7.313h8.437zm.282 22.041h-6.62L44.56 44.26a1.408 1.408 0 0 0-2.628.024l-4.11 11.083-2.873-8.142a1.406 1.406 0 0 0-2.554-.218l-2.759 4.941h-6.602a1.406 1.406 0 1 0 0 2.813h7.428c.51 0 .98-.276 1.228-.721l1.643-2.943 3.13 8.87c.197.56.722.934 1.314.94h.012c.587 0 1.114-.367 1.318-.918l4.178-11.267 2.013 5.145c.21.539.73.894 1.31.894h7.58a1.406 1.406 0 1 0 0-2.813z" fill="#616F8A"/><path fill-rule="evenodd" clip-rule="evenodd" d="M95.259 85.315l-1.37-1.37a1.406 1.406 0 1 0-1.989 1.989l1.17 1.17-5.965 5.967-10.143-10.143 5.966-5.966 4.732 4.732a1.407 1.407 0 0 0 1.989-1.989l-5.724-5.723-.002-.003L79.945 70l-.003-.003-3.51-3.51a2.514 2.514 0 0 0-1.79-.742c-.676 0-1.312.264-1.79.742l-.199.199-5.032-5.033a37.844 37.844 0 0 0 7.455-15.637l.499-2.813a37.96 37.96 0 0 0 .276-2.711l.084-2.813a39.19 39.19 0 0 0-.114-2.711l-.321-2.813c-.983-6.465-3.61-12.512-7.745-17.735a1.407 1.407 0 0 0-2.205 1.745c4.956 6.26 7.575 13.8 7.575 21.803 0 19.385-15.771 35.156-35.156 35.156-19.386 0-35.157-15.771-35.157-35.156 0-19.386 15.772-35.157 35.157-35.157a35.072 35.072 0 0 1 23.638 9.133 1.406 1.406 0 1 0 1.891-2.081A37.878 37.878 0 0 0 37.968 0C17.034 0 0 17.033 0 37.969 0 56.453 13.278 71.89 30.796 75.255l2.812.43c.895.103 1.8.175 2.712.215l2.812.018a38.193 38.193 0 0 0 2.712-.177l2.812-.393a37.82 37.82 0 0 0 16.998-7.727l5.033 5.032-.199.199a2.514 2.514 0 0 0-.741 1.79c0 .676.263 1.312.741 1.79L70 79.943l.002.002 3.977 3.978.003.002 11.333 11.333a2.513 2.513 0 0 0 1.79.742c.676 0 1.312-.263 1.79-.741l6.364-6.364a2.515 2.515 0 0 0 .741-1.79c0-.677-.263-1.312-.741-1.79zm-24.595-16.64L65.78 63.79a38.1 38.1 0 0 1-1.99 1.99l4.886 4.885 1.99-1.989zm2.32 10.276l1.99 1.989 5.965-5.966-1.988-1.99-5.966 5.967zm3.978-7.955l-2.32-2.32-5.966 5.966 2.32 2.32 5.966-5.966z" fill="#616F8A"/></svg>
